gilbertguide/assets/images/item_10019.svg

<?xml version="1.0" standalone="no"?><!DOCTYPE svg PUBLIC "-//W3C//DTD SVG 1.1//EN" "http://www.w3.org/Graphics/SVG/1.1/DTD/svg11.dtd"><svg xmlns="http://www.w3.org/2000/svg" version="1.1" width="125px" height="46px" viewBox="0 0 125 46"><desc>About</desc><defs/><g id="Polygon10848"><path d="m35 23.2l-.7 2.8l-2.6 0l3.3-10.8l3.2 0l3.4 10.8l-2.7 0l-.8-2.8l-3.1 0zm2.8-1.8c0 0-.71-2.28-.7-2.3c-.2-.6-.4-1.4-.6-2.1c0 0 0 0 0 0c-.1.7-.3 1.5-.5 2.1c.02.02-.6 2.3-.6 2.3l2.4 0zm5-6.8l2.5 0l0 4.5c0 0 0 0 0 0c.5-.7 1.3-1.1 2.4-1.1c1.8 0 3.2 1.6 3.2 4c0 2.8-1.8 4.2-3.6 4.2c-.9 0-1.8-.4-2.3-1.3c-.04.01-.1 0-.1 0l-.1 1.1c0 0-2.03 0-2 0c0-.5 0-1.5 0-2.3c.04-.04 0-9.1 0-9.1zm2.5 8.1c0 .1 0 .3 0 .4c.2.6.7 1.2 1.4 1.2c1.1 0 1.7-.8 1.7-2.3c0-1.2-.5-2.1-1.7-2.1c-.6 0-1.2.5-1.4 1.2c0 .1 0 .3 0 .4c0 0 0 1.2 0 1.2zm14.9-.7c0 2.9-2.1 4.2-4.1 4.2c-2.3 0-4.1-1.5-4.1-4.1c0-2.5 1.7-4.1 4.2-4.1c2.4 0 4 1.6 4 4zm-5.7.1c0 1.3.6 2.3 1.6 2.3c1 0 1.6-.9 1.6-2.3c0-1.2-.5-2.4-1.6-2.4c-1.1 0-1.6 1.2-1.6 2.4zm14.6 1.4c0 1 0 1.8 0 2.5c.02 0-2.1 0-2.1 0l-.1-1.1c0 0-.05 0 0 0c-.4.5-1.1 1.3-2.5 1.3c-1.6 0-2.7-1-2.7-3.4c-.05-.03 0-4.6 0-4.6l2.4 0c0 0-.02 4.18 0 4.2c0 1.1.4 1.8 1.2 1.8c.7 0 1.1-.5 1.2-.8c.1-.2.1-.4.1-.6c.03.03 0-4.6 0-4.6l2.5 0c0 0-.04 5.29 0 5.3zm4.6-7.4l0 2.1l1.8 0l0 1.8l-1.8 0c0 0 .03 2.8 0 2.8c0 .9.3 1.4 1 1.4c.3 0 .5 0 .7-.1c0 0 0 1.9 0 1.9c-.3.1-.9.2-1.5.2c-.8 0-1.5-.3-1.9-.7c-.4-.5-.7-1.2-.7-2.3c.05-.03 0-3.2 0-3.2l-1 0l0-1.8l1 0l0-1.5l2.4-.6z" stroke="none" fill="#fff"/></g></svg>

<?xml version="1.0" standalone="no"?><!DOCTYPE svg PUBLIC "-//W3C//DTD SVG 1.1//EN" "http://www.w3.org/Graphics/SVG/1.1/DTD/svg11.dtd"><svg xmlns="http://www.w3.org/2000/svg" version="1.1" width="125px" height="46px" viewBox="0 0 125 46">  <desc>About</desc>  <defs/>  <g id="Polygon10704">    <path d="M 35 23.2 L 34.3 26 L 31.7 26 L 35 15.2 L 38.2 15.2 L 41.6 26 L 38.9 26 L 38.1 23.2 L 35 23.2 Z M 37.8 21.4 C 37.8 21.4 37.09 19.12 37.1 19.1 C 36.9 18.5 36.7 17.7 36.5 17 C 36.5 17 36.5 17 36.5 17 C 36.4 17.7 36.2 18.5 36 19.1 C 36.02 19.12 35.4 21.4 35.4 21.4 L 37.8 21.4 Z M 42.8 14.6 L 45.3 14.6 L 45.3 19.1 C 45.3 19.1 45.3 19.1 45.3 19.1 C 45.8 18.4 46.6 18 47.7 18 C 49.5 18 50.9 19.6 50.9 22 C 50.9 24.8 49.1 26.2 47.3 26.2 C 46.4 26.2 45.5 25.8 45 24.9 C 44.96 24.91 44.9 24.9 44.9 24.9 L 44.8 26 C 44.8 26 42.77 26 42.8 26 C 42.8 25.5 42.8 24.5 42.8 23.7 C 42.84 23.66 42.8 14.6 42.8 14.6 Z M 45.3 22.7 C 45.3 22.8 45.3 23 45.3 23.1 C 45.5 23.7 46 24.3 46.7 24.3 C 47.8 24.3 48.4 23.5 48.4 22 C 48.4 20.8 47.9 19.9 46.7 19.9 C 46.1 19.9 45.5 20.4 45.3 21.1 C 45.3 21.2 45.3 21.4 45.3 21.5 C 45.3 21.5 45.3 22.7 45.3 22.7 Z M 60.2 22 C 60.2 24.9 58.1 26.2 56.1 26.2 C 53.8 26.2 52 24.7 52 22.1 C 52 19.6 53.7 18 56.2 18 C 58.6 18 60.2 19.6 60.2 22 Z M 54.5 22.1 C 54.5 23.4 55.1 24.4 56.1 24.4 C 57.1 24.4 57.7 23.5 57.7 22.1 C 57.7 20.9 57.2 19.7 56.1 19.7 C 55 19.7 54.5 20.9 54.5 22.1 Z M 69.1 23.5 C 69.1 24.5 69.1 25.3 69.1 26 C 69.12 26 67 26 67 26 L 66.9 24.9 C 66.9 24.9 66.85 24.9 66.9 24.9 C 66.5 25.4 65.8 26.2 64.4 26.2 C 62.8 26.2 61.7 25.2 61.7 22.8 C 61.65 22.77 61.7 18.2 61.7 18.2 L 64.1 18.2 C 64.1 18.2 64.08 22.38 64.1 22.4 C 64.1 23.5 64.5 24.2 65.3 24.2 C 66 24.2 66.4 23.7 66.5 23.4 C 66.6 23.2 66.6 23 66.6 22.8 C 66.63 22.83 66.6 18.2 66.6 18.2 L 69.1 18.2 C 69.1 18.2 69.06 23.49 69.1 23.5 Z M 73.7 16.1 L 73.7 18.2 L 75.5 18.2 L 75.5 20 L 73.7 20 C 73.7 20 73.73 22.8 73.7 22.8 C 73.7 23.7 74 24.2 74.7 24.2 C 75 24.2 75.2 24.2 75.4 24.1 C 75.4 24.1 75.4 26 75.4 26 C 75.1 26.1 74.5 26.2 73.9 26.2 C 73.1 26.2 72.4 25.9 72 25.5 C 71.6 25 71.3 24.3 71.3 23.2 C 71.35 23.17 71.3 20 71.3 20 L 70.3 20 L 70.3 18.2 L 71.3 18.2 L 71.3 16.7 L 73.7 16.1 Z " stroke="none" fill="#fff"/>  </g></svg>
